icons/Color/24/gimp-prefs-folders-fonts.svg

<svg height="24" viewBox="0 0 24 24" width="24" xmlns="http://www.w3.org/2000/svg" xmlns:xlink="http://www.w3.org/1999/xlink"><linearGradient id="a" gradientTransform="matrix(.6008182 0 0 .60098717 -1.836377 23.944582)" gradientUnits="userSpaceOnUse" x1="18.112709" x2="15.514889" y1="31.36775" y2="6.18025"><stop offset="0" stop-color="#424242"/><stop offset="1" stop-color="#777"/></linearGradient><linearGradient id="b" gradientTransform="matrix(.58583149 0 0 .59874372 -1.306445 24.343264)" gradientUnits="userSpaceOnUse" x1="22.175976" x2="22.065331" y1="36.987999" y2="32.050499"><stop offset="0" stop-color="#6194cb"/><stop offset="1" stop-color="#729fcf"/></linearGradient><linearGradient id="c" gradientTransform="matrix(.77184067 0 0 .50168839 -1.887786 23.335751)" gradientUnits="userSpaceOnUse" x1="13.035696" x2="12.853771" y1="32.567184" y2="46.689312"><stop offset="0" stop-color="#fff" stop-opacity=".796078"/><stop offset="1" stop-color="#fff" stop-opacity=".215686"/></linearGradient><path d="m.88039079 47.195223c.01309514.250194.27631921.500388.52644261.500388h18.8218436c.250122 0 .48715-.250194.474055-.500388l-.562632-16.362918c-.0131-.250193-.276314-.500392-.526437-.500392h-7.973382c-.291431 0-.741694-.189664-.842133-.665071l-.367335-1.738699c-.09341-.44213-.53005-.623756-.7801735-.623756h-8.87940713c-.2501283 0-.48715589.250193-.47406051.500387z" fill="#fff" stroke="url(#a)" stroke-linecap="round" stroke-linejoin="round" stroke-width=".600903" transform="translate(0 -24)"/><path d="m0 0h24v23.996084h-24z" fill="#bebebe" opacity="0"/><g stroke-width=".154784" transform="matrix(1.0910439 0 0 1.076383 7.099439 -7.804557)"><path d="m5.3596894 11.40703c-.9090352.000003-1.5388348.0917-1.8893999.275077-.3505702.183386-.525855.496216-.5258528.938493-.0000022.352386.1304415.632857.3913318.841409.2649625.204959.6236824.307439 1.0761628.307437.6236813.000002 1.1230374-.194169 1.4980691-.582512.3790973-.391938.5686478-.911524.5686541-1.558764v-.22114zm2.2440443-.409917v3.44654h-1.1250792v-.916919c-.2568172.366768-.5768122.638247-.959987.814439-.3831833.172596-.8519661.258895-1.4063493.258895-.7011386 0-1.2596013-.172595-1.6753902-.51779-.4117147-.348787-.6175716-.814439-.6175704-1.396954-.0000012-.679597.2568108-1.191992.7704345-1.537189.517697-.345189 1.2881316-.517786 2.3113049-.517791h1.5775575v-.09709c-.0000063-.456652-.1712136-.8090371-.5136237-1.0571495-.3383445-.2516982-.8152788-.3775493-1.4308075-.3775545-.391335.0000052-.7724765.0413561-1.1434244.124054-.3709511.0827072-.7276333.2067605-1.0700477.3721609v-.9169207c.4117124-.1402274.8111971-.2445056 1.1984548-.3128303.3872533-.0719087.7643173-.1078665 1.1311942-.1078735.9905539.0000063 1.7304153.2265393 2.2195851.6795994.4891592.4530708.7337411 1.1398612.7337484 2.0603722" stroke="#fff"/><path d="m11.674456 17.986596c.356997.000001.628627-.136145.814893-.40844.189361-.272294.284043-.667767.284048-1.186424-.000005-.518652-.09469-.914127-.284048-1.186424-.186266-.27229-.457896-.408437-.814893-.408442-.357005.000005-.631739.137773-.824206.413303-.189369.2723-.284051.666151-.284048 1.181563-.000003.515415.09467.910889.284048 1.186424.192467.272295.467201.408441.824206.40844m-1.108254-3.525235c.229719-.31767.484275-.551065.763669-.700185.279389-.152348.60069-.228527.963904-.228532.642595.000005 1.170336.267436 1.583221.802295.412873.531626.619311 1.217223.619319 2.056793-.000008.839575-.206446 1.526793-.619319 2.061655-.412885.531621-.940626.797431-1.583221.797431-.363214 0-.684515-.07456-.963904-.223669-.279394-.152356-.53395-.387371-.763669-.705048v.787709h-1.6670401v-7.565885h1.6670401z" stroke="#787878"/></g><g transform="matrix(.99965663 0 0 1.0005166 -.465801 -24.322559)"><path d="m22 48c.670129-.02638 1.150031-.656403 1.199218-1.389688.463853-6.914704.972105-12.712496.972105-12.712496.04227-.14818-.09837-.296359-.281282-.296359h-20.1357041s-1.0839751 13.092665-1.0839751 13.092665c-.06711.588005-.2730018 1.080563-.9079425 1.307485l20.2375807-.0016z" display="block" fill="url(#b)" stroke="#3465a4" stroke-linejoin="round" stroke-width=".592258"/><path d="m4.2634507 34.265001 19.2104103.03984-.922143 12.293645c-.0494.658573-.264026.877811-1.097081.877811-1.096404 0-16.800764-.01992-18.3923652-.01992.1368518-.197181.1955282-.607632.1963136-.61746z" fill="none" opacity=".465909" stroke="url(#c)" stroke-linecap="round" stroke-width=".600059"/></g></svg>

<?xml version="1.0" encoding="UTF-8" standalone="no"?>
<!-- Created with Inkscape (http://www.inkscape.org/) -->

<svg
   xmlns:dc="http://purl.org/dc/elements/1.1/"
   xmlns:cc="http://creativecommons.org/ns#"
   xmlns:rdf="http://www.w3.org/1999/02/22-rdf-syntax-ns#"
   xmlns:svg="http://www.w3.org/2000/svg"
   xmlns="http://www.w3.org/2000/svg"
   xmlns:xlink="http://www.w3.org/1999/xlink"
   xmlns:sodipodi="http://sodipodi.sourceforge.net/DTD/sodipodi-0.dtd"
   xmlns:inkscape="http://www.inkscape.org/namespaces/inkscape"
   width="24"
   height="24"
   id="svg97"
   sodipodi:version="0.32"
   inkscape:version="0.92pre1 unknown"
   sodipodi:docname="gimp-prefs-folders-fonts-24.svg"
   inkscape:output_extension="org.inkscape.output.svg.inkscape"
   version="1.1"
   viewBox="0 0 24 24">
  <defs
     id="defs3">
    <linearGradient
       id="linearGradient9766">
      <stop
         style="stop-color:#6194cb;stop-opacity:1;"
         offset="0"
         id="stop9768" />
      <stop
         style="stop-color:#729fcf;stop-opacity:1;"
         offset="1"
         id="stop9770" />
    </linearGradient>
    <linearGradient
       id="linearGradient3096">
      <stop
         id="stop3098"
         offset="0"
         style="stop-color:#424242;stop-opacity:1;" />
      <stop
         id="stop3100"
         offset="1.0000000"
         style="stop-color:#777777;stop-opacity:1.0000000;" />
    </linearGradient>
    <linearGradient
       gradientUnits="userSpaceOnUse"
       y2="6.1802502"
       x2="15.514889"
       y1="31.36775"
       x1="18.112709"
       id="linearGradient3104-5"
       xlink:href="#linearGradient3096"
       inkscape:collect="always"
       gradientTransform="matrix(0.6008182,0,0,0.60098717,-1.8363771,23.944582)" />
    <linearGradient
       inkscape:collect="always"
       xlink:href="#linearGradient9766"
       id="linearGradient9772"
       x1="22.175976"
       y1="36.987999"
       x2="22.065331"
       y2="32.050499"
       gradientUnits="userSpaceOnUse"
       gradientTransform="matrix(0.58583149,0,0,0.59874372,-1.3064445,24.343264)" />
    <linearGradient
       gradientUnits="userSpaceOnUse"
       y2="46.689312"
       x2="12.853771"
       y1="32.567184"
       x1="13.035696"
       gradientTransform="matrix(0.77184067,0,0,0.50168839,-1.8877857,23.335751)"
       id="linearGradient322-1"
       xlink:href="#linearGradient8340"
       inkscape:collect="always" />
    <linearGradient
       id="linearGradient8340">
      <stop
         id="stop8342"
         stop-color="#ffffff"
         stop-opacity="0.796078" />
      <stop
         id="stop8344"
         offset="1"
         stop-color="#ffffff"
         stop-opacity="0.215686" />
    </linearGradient>
  </defs>
  <sodipodi:namedview
     fill="#729fcf"
     id="base"
     pagecolor="#ffffff"
     bordercolor="#666666"
     borderopacity="0.10196078"
     inkscape:pageopacity="0.0"
     inkscape:pageshadow="2"
     inkscape:zoom="11.313708"
     inkscape:cx="19.956729"
     inkscape:cy="6.3809804"
     inkscape:current-layer="svg97"
     showgrid="true"
     inkscape:grid-bbox="true"
     inkscape:document-units="px"
     inkscape:window-width="1920"
     inkscape:window-height="1016"
     inkscape:window-x="0"
     inkscape:window-y="27"
     inkscape:showpageshadow="false"
     stroke="#3465a4"
     inkscape:window-maximized="1">
    <inkscape:grid
       type="xygrid"
       id="grid4153" />
  </sodipodi:namedview>
  <metadata
     id="metadata4">
    <rdf:RDF>
      <cc:Work
         rdf:about="">
        <dc:format>image/svg+xml</dc:format>
        <dc:type
           rdf:resource="http://purl.org/dc/dcmitype/StillImage" />
        <dc:title />
        <dc:date />
        <dc:creator>
          <cc:Agent>
            <dc:title>Jakub Steiner</dc:title>
          </cc:Agent>
        </dc:creator>
        <cc:license
           rdf:resource="http://creativecommons.org/publicdomain/zero/1.0/" />
        <dc:source>http://jimmac.musichall.cz</dc:source>
        <dc:subject>
          <rdf:Bag>
            <rdf:li>folder</rdf:li>
            <rdf:li>directory</rdf:li>
          </rdf:Bag>
        </dc:subject>
      </cc:Work>
      <cc:License
         rdf:about="http://creativecommons.org/publicdomain/zero/1.0/">
        <cc:permits
           rdf:resource="http://creativecommons.org/ns#Reproduction" />
        <cc:permits
           rdf:resource="http://creativecommons.org/ns#Distribution" />
        <cc:permits
           rdf:resource="http://creativecommons.org/ns#DerivativeWorks" />
      </cc:License>
    </rdf:RDF>
  </metadata>
  <g
     id="layer1"
     inkscape:label="Folder"
     inkscape:groupmode="layer"
     transform="translate(0,-24)" />
  <g
     id="g4300">
    <path
       sodipodi:nodetypes="ccccccssssccc"
       style="fill:#ffffff;fill-opacity:1;fill-rule:nonzero;stroke:url(#linearGradient3104-5);stroke-width:0.60090262;stroke-linecap:round;stroke-linejoin:round;stroke-miterlimit:4;stroke-dasharray:none;stroke-opacity:1"
       id="path216-5"
       d="M 0.88039079,47.195223 C 0.89348593,47.445417 1.15671,47.695611 1.4068334,47.695611 H 20.228677 c 0.250122,0 0.48715,-0.250194 0.474055,-0.500388 L 20.1401,30.832305 C 20.127,30.582112 19.863786,30.331913 19.613663,30.331913 h -7.973382 c -0.291431,0 -0.741694,-0.189664 -0.842133,-0.665071 l -0.367335,-1.738699 c -0.09341,-0.44213 -0.53005,-0.623756 -0.7801735,-0.623756 H 0.77123237 c -0.2501283,0 -0.48715589,0.250193 -0.47406051,0.500387 z"
       inkscape:connector-curvature="0"
       transform="translate(0,-24)" />
    <rect
       y="24"
       x="2.4977563e-08"
       height="23.996084"
       width="24"
       id="rect3965-5"
       style="color:#000000;clip-rule:nonzero;display:inline;overflow:visible;visibility:visible;opacity:0;isolation:auto;mix-blend-mode:normal;color-interpolation:sRGB;color-interpolation-filters:linearRGB;solid-color:#000000;solid-opacity:1;fill:#bebebe;fill-opacity:1;fill-rule:nonzero;stroke:none;stroke-width:0.73943967;stroke-linecap:round;stroke-linejoin:miter;stroke-miterlimit:4;stroke-dasharray:none;stroke-dashoffset:0;stroke-opacity:1;color-rendering:auto;image-rendering:auto;shape-rendering:auto;text-rendering:auto;enable-background:accumulate"
       transform="translate(0,-24)" />
    <g
       id="g3962-5-5"
       style="display:inline"
       transform="matrix(1.0910439,0,0,1.076383,7.099439,-7.8045566)">
      <g
         id="g891-7"
         transform="matrix(0.1493623,0,0,0.1493623,-16.885834,51.298373)" />
      <path
         inkscape:connector-curvature="0"
         style="font-style:normal;font-weight:normal;font-size:22.27977753px;font-family:'Bitstream Vera Sans';fill:#000000;fill-opacity:1;stroke:#ffffff;stroke-width:0.15478387;stroke-linecap:butt;stroke-linejoin:miter;stroke-miterlimit:4;stroke-dasharray:none;stroke-opacity:1"
         d="m 5.3596894,11.40703 c -0.9090352,3e-6 -1.5388348,0.0917 -1.8893999,0.275077 -0.3505702,0.183386 -0.525855,0.496216 -0.5258528,0.938493 -2.2e-6,0.352386 0.1304415,0.632857 0.3913318,0.841409 0.2649625,0.204959 0.6236824,0.307439 1.0761628,0.307437 0.6236813,2e-6 1.1230374,-0.194169 1.4980691,-0.582512 C 6.2890977,12.794996 6.4786482,12.27541 6.4786545,11.62817 V 11.40703 H 5.3596894 m 2.2440443,-0.409917 v 3.44654 H 6.4786545 v -0.916919 c -0.2568172,0.366768 -0.5768122,0.638247 -0.959987,0.814439 -0.3831833,0.172596 -0.8519661,0.258895 -1.4063493,0.258895 -0.7011386,0 -1.2596013,-0.172595 -1.6753902,-0.51779 -0.4117147,-0.348787 -0.6175716,-0.814439 -0.6175704,-1.396954 -1.2e-6,-0.679597 0.2568108,-1.191992 0.7704345,-1.537189 0.517697,-0.345189 1.2881316,-0.517786 2.3113049,-0.517791 h 1.5775575 v -0.09709 C 6.4786482,10.076602 6.3074409,9.7242169 5.9650308,9.4761045 5.6266863,9.2244063 5.149752,9.0985552 4.5342233,9.09855 4.1428883,9.0985552 3.7617468,9.1399061 3.3907989,9.222604 3.0198478,9.3053112 2.6631656,9.4293645 2.3207512,9.5947649 V 8.6778442 C 2.7324636,8.5376168 3.1319483,8.4333386 3.519206,8.3650139 3.9064593,8.2931052 4.2835233,8.2571474 4.6504002,8.2571404 c 0.9905539,6.3e-6 1.7304153,0.2265393 2.2195851,0.6795994 0.4891592,0.4530708 0.7337411,1.1398612 0.7337484,2.0603722"
         id="text2841-6" />
      <path
         inkscape:connector-curvature="0"
         style="font-style:normal;font-weight:normal;font-size:10.17865562px;font-family:'Bitstream Vera Sans';fill:#000000;fill-opacity:1;stroke:#787878;stroke-width:0.15478387;stroke-linecap:butt;stroke-linejoin:miter;stroke-miterlimit:4;stroke-dasharray:none;stroke-opacity:1"
         d="m 11.674456,17.986596 c 0.356997,1e-6 0.628627,-0.136145 0.814893,-0.40844 0.189361,-0.272294 0.284043,-0.667767 0.284048,-1.186424 -5e-6,-0.518652 -0.09469,-0.914127 -0.284048,-1.186424 -0.186266,-0.27229 -0.457896,-0.408437 -0.814893,-0.408442 -0.357005,5e-6 -0.631739,0.137773 -0.824206,0.413303 -0.189369,0.2723 -0.284051,0.666151 -0.284048,1.181563 -3e-6,0.515415 0.09467,0.910889 0.284048,1.186424 0.192467,0.272295 0.467201,0.408441 0.824206,0.40844 m -1.108254,-3.525235 c 0.229719,-0.31767 0.484275,-0.551065 0.763669,-0.700185 0.279389,-0.152348 0.60069,-0.228527 0.963904,-0.228532 0.642595,5e-6 1.170336,0.267436 1.583221,0.802295 0.412873,0.531626 0.619311,1.217223 0.619319,2.056793 -8e-6,0.839575 -0.206446,1.526793 -0.619319,2.061655 -0.412885,0.531621 -0.940626,0.797431 -1.583221,0.797431 -0.363214,0 -0.684515,-0.07456 -0.963904,-0.223669 -0.279394,-0.152356 -0.53395,-0.387371 -0.763669,-0.705048 V 19.10981 H 8.8991619 v -7.565885 h 1.6670401 v 2.917436"
         id="text2849-7" />
    </g>
    <g
       transform="matrix(0.99965663,0,0,1.0005166,-0.46580058,-24.322559)"
       id="g4420">
      <path
         inkscape:connector-curvature="0"
         style="color:#000000;display:block;visibility:visible;fill:url(#linearGradient9772);fill-opacity:1;fill-rule:nonzero;stroke:#3465a4;stroke-width:0.59225792;stroke-linecap:butt;stroke-linejoin:round;stroke-miterlimit:4;stroke-dasharray:none;stroke-dashoffset:0;stroke-opacity:1;marker:none;marker-start:none;marker-mid:none;marker-end:none"
         d="m 22,48 c 0.670129,-0.02638 1.150031,-0.656403 1.199218,-1.389688 0.463853,-6.914704 0.972105,-12.712496 0.972105,-12.712496 0.04227,-0.14818 -0.09837,-0.296359 -0.281282,-0.296359 H 3.7543369 c 0,0 -1.0839751,13.092665 -1.0839751,13.092665 -0.06711,0.588005 -0.2730018,1.080563 -0.9079425,1.307485 L 22,48.000007 Z"
         id="path233-5"
         sodipodi:nodetypes="cscccscc"
         inkscape:export-filename="/home/jimmac/ximian_art/icons/nautilus/suse93/gnome-fs-directory.png"
         inkscape:export-xdpi="74.800003"
         inkscape:export-ydpi="74.800003" />
      <path
         inkscape:connector-curvature="0"
         sodipodi:nodetypes="ccsscsc"
         id="path304-3"
         d="m 4.2634507,34.265001 19.2104103,0.03984 -0.922143,12.293645 c -0.0494,0.658573 -0.264026,0.877811 -1.097081,0.877811 -1.096404,0 -16.800764,-0.01992 -18.3923652,-0.01992 C 3.1991236,47.259196 3.2578,46.848745 3.2585854,46.838917 Z"
         style="opacity:0.46590911;fill:none;fill-opacity:1;fill-rule:evenodd;stroke:url(#linearGradient322-1);stroke-width:0.60005915px;stroke-linecap:round;stroke-linejoin:miter;stroke-opacity:1" />
    </g>
  </g>
</svg>
